data/sheikah/y.svg

<!-- Generated by IcoMoon.io -->
<svg version="1.1" xmlns="http://www.w3.org/2000/svg" width="1024" height="1024" viewBox="0 0 1024 1024">
<title></title>
<g id="icomoon-ignore">
</g>
<path d="M153.5 751l119.5 119.5v-518h-119.5v398.5zM352.5 273v597.5h119.5v-597.5l-119.5-119.5h-79.5l-119.5 119.5h199zM751 153.5l119.5 119.5v398.5h-119.5v-518zM552 153.5h119.5v597.5h199l-119.5 119.5h-79.5l-119.5-119.5v-597.5z"></path>
</svg>

<svg xmlns="http://www.w3.org/2000/svg" width="1024" height="1024" viewBox="0 0 1024 1024">
  <title/>
  <path d="M153.5 751 273 870.5v-518H153.5zm199-478v597.5H472V273L352.5 153.5H273L153.5 273zM751 153.5 870.5 273v398.5H751zm-199 0h119.5V751h199L751 870.5h-79.5L552 751z"/>
</svg>
